packages/foundations/assets/icons/functional/images/human/wc_men.svg

<svg xmlns="http://www.w3.org/2000/svg" width="32" height="32" fill="none"><path fill="#1A1C1F" fill-rule="evenodd" d="M15.047 2.111c-1.5.403-2.491 1.988-2.175 3.475.132.622.367 1.05.83 1.511.658.657 1.426.95 2.322.887.79-.056 1.446-.377 1.996-.976 1.124-1.227 1.037-3.048-.199-4.192a3.1 3.1 0 0 0-1.263-.708c-.389-.101-1.13-.1-1.511.003m1.345 2.104c.403.276.557.88.326 1.275-.417.712-1.394.706-1.765-.011-.227-.439-.019-1.093.419-1.316.305-.155.751-.132 1.02.052m-4.657 5.363c-.744.202-1.287.805-1.44 1.597-.057.297-.016.641.608 5.092.368 2.625.694 4.862.724 4.971.129.456.544.732 1.106.734l.334.001v3.629c0 2.962.013 3.66.073 3.8.326.762 1.465.767 1.801.007.097-.221.101-.4.087-4.49l-.015-4.26-.133-.197c-.206-.304-.571-.462-1.066-.462h-.405l-.548-4.067c-.302-2.236-.562-4.156-.578-4.266l-.03-.2h7.531l-.027.146c-.024.13-1.197 8.333-1.197 8.372 0 .008-.174.016-.387.016-.474.002-.764.121-.979.402l-.154.202-.016 4.244c-.008 2.334-.001 4.323.016 4.419.037.2.293.515.512.628.356.184.987.038 1.209-.281.223-.321.226-.374.226-4.092v-3.582l.2-.07c.547-.191 1.033-.662 1.229-1.191.068-.185.316-1.802.727-4.75.579-4.154.619-4.492.56-4.773a1.95 1.95 0 0 0-.581-1.082 1.8 1.8 0 0 0-.616-.426l-.319-.129-4.08-.011c-3.465-.009-4.124.002-4.372.069"/></svg>

<svg width="32" height="32" viewBox="0 0 32 32" fill="none" xmlns="http://www.w3.org/2000/svg"><path d="M15.047 2.111 C 13.547 2.514,12.556 4.099,12.872 5.586 C 13.004 6.208,13.239 6.636,13.702 7.097 C 14.360 7.754,15.128 8.047,16.024 7.984 C 16.814 7.928,17.470 7.607,18.020 7.008 C 19.144 5.781,19.057 3.960,17.821 2.816 C 17.462 2.484,16.995 2.222,16.558 2.108 C 16.169 2.007,15.428 2.008,15.047 2.111 M16.392 4.215 C 16.795 4.491,16.949 5.095,16.718 5.490 C 16.301 6.202,15.324 6.196,14.953 5.479 C 14.726 5.040,14.934 4.386,15.372 4.163 C 15.677 4.008,16.123 4.031,16.392 4.215 M11.735 9.578 C 10.991 9.780,10.448 10.383,10.295 11.175 C 10.238 11.472,10.279 11.816,10.903 16.267 C 11.271 18.892,11.597 21.129,11.627 21.238 C 11.756 21.694,12.171 21.970,12.733 21.972 L 13.067 21.973 13.067 25.602 C 13.067 28.564,13.080 29.262,13.140 29.402 C 13.466 30.164,14.605 30.169,14.941 29.409 C 15.038 29.188,15.042 29.009,15.028 24.919 L 15.013 20.659 14.880 20.462 C 14.674 20.158,14.309 20.000,13.814 20.000 L 13.409 20.000 12.861 15.933 C 12.559 13.697,12.299 11.777,12.283 11.667 L 12.253 11.467 16.019 11.467 L 19.784 11.467 19.757 11.613 C 19.733 11.743,18.560 19.946,18.560 19.985 C 18.560 19.993,18.386 20.001,18.173 20.001 C 17.699 20.003,17.409 20.122,17.194 20.403 L 17.040 20.605 17.024 24.849 C 17.016 27.183,17.023 29.172,17.040 29.268 C 17.077 29.468,17.333 29.783,17.552 29.896 C 17.908 30.080,18.539 29.934,18.761 29.615 C 18.984 29.294,18.987 29.241,18.987 25.523 L 18.987 21.941 19.187 21.871 C 19.734 21.680,20.220 21.209,20.416 20.680 C 20.484 20.495,20.732 18.878,21.143 15.930 C 21.722 11.776,21.762 11.438,21.703 11.157 C 21.609 10.702,21.450 10.406,21.122 10.075 C 20.919 9.871,20.725 9.737,20.506 9.649 L 20.187 9.520 16.107 9.509 C 12.642 9.500,11.983 9.511,11.735 9.578 " fill="#1A1C1F" stroke="none" fill-rule="evenodd"></path></svg>
